X: 20
T:Walk of the Twopenny Postman, Fieldtown
M:6/8
L:1/8
A:Fieldtown
P:A(AB2)4
K:ADor
P:A
g2f|edc BAG|BcB Bgf|edc BAG|ABA Agf|
edc BAG|BcB B2c|def gdB|A3 ||
P:B
A2B|d2B d2B|d2B dgf|e2c e2c|e2c e2f|
g2a b2a|gfe d2d|def gdB|A3    ||
